X:1
T:Title
%%score ( 1 2 ) { 3 | 4 }
L:1/8
Q:1/4=97
M:4/4
K:Db
V:1 treble nm="Grand Piano, Soprano"
V:2 treble 
V:3 bass nm="Choir Pad, Galilee"
V:4 bass 
V:1
 D>E [DF]2- [DF][DF] [DF]>[DE] | [DF]>[EG] [FA]6 | [FA]2 [GB]2- [GB][GB] [GB]>[Bd] | %3
w: By~B.~C.~Ward,~1893 * * * * * *|||
 [Ac]>[GB] [FA]6 | [DF]2 [CE]2- [CE][DF] [EG]>[FA] | z2 d4 z2 | [Af]2 [Ae]2- [Ae][Ac] [Ac]>[Bd] | %7
w: ||||
 z2 A6 | [FA]2 [FA]2- [FA]>[DF] [EG]>[FA] | [GB]>[GB] [FA]6 | [Fd]2 [Ec]2- [Ec]>[DB] [CA]>[CE] | %11
w: ||||
 [DF]>[EG] [DF]6 | [FA]2 [Af]2- [Af]>[Ge] [Fd]>[FA] | z2 B4 z2 | [GB]2 [FA]2- [FA][FA] [EA]>[EA] | %15
w: ||||
 z2 d6 | z8 |] %17
w: ||
V:2
 x8 | x8 | x8 | x8 | x8 | [GB]>[Gc] F4- [FA]2 | x8 | [Ac]>[EB] E2 F2 G2 | x8 | x8 | x8 | x8 | x8 | %13
 [DF]>[FA] G4- [Gd]2 | x8 | [GB]>[Gc] F>F G>G F2- | F4 z4 |] %17
V:3
 F,>G, A,2- A,A, A,>A, | A,>A,[K:treble] D6 | D2 D2- DD D>D | D>D D6 | A,2 A,2- A,A, A,>A, | %5
 A,>A, A,4[K:treble] D2 | D2 C2- CE E>E | E>D C2 D2 C2 | z2 z z/ D/ D>A, A,>D | D>D D>D D>D A,2 | %10
 z2 z z/[K:bass] A,/ A,>A, A,>A, | A,>A, A,>A, A,>A, A,2 | z2 z z/[K:treble] D/ D>A, A,>D | %13
 D>D D>D D>D B,2 | D2 D2- DD C>C | A,>A, A,>A, B,>B, A,2- | A,4 z4 |] %17
V:4
 D,2 D,2- D,D, D,>D, | D,>D, D,6 | D,2 G,2- G,G, G,>G, | G,>G, D,6 | D,2 A,,2- A,,A,, A,,>A,, | %5
 A,,>A,, D,6 | D,2 E,2- E,E, E,>E, | E,>E, A,,6 | z2 z z/ D,/ D,>D, D,>D, | D,>D, D,>D, D,>D, D,2 | %10
 z2 z z/ A,,/ A,,>A,, A,,>A,, | A,,>A,, D,>D, D,>D, D,2 | z2 z z/ D,/ D,>D, D,>D, | %13
 D,>D, G,>G, G,>G, G,2 | G,2 A,2- A,A, A,,>A,, | A,,>A,, D,6 | z8 |] %17

